X: 131923
T: Man in the Moon
S: "Roche Collection of Traditional Irish Music" [II/22/245]
L: 1/8
M: 2/4
Q: 275
R: polka
K: D
D/E/ |: F>A dA | BA dA | Bc/d/ AG | E2 E2 |
F>A dA | BA dA | Bc/d/ AF |1 D2 D>E :|2 D2 D2 ||
e>f ff/f/ | ef df | g>a fd | fe e2 |
e>f ff/f/ | ed ef | a>f dB |1 AF D2 :|2 AF DE ||
